sources/design/Outline/ൂ.svg

<svg:svg xmlns:cc="http://creativecommons.org/ns#" xmlns:dc="http://purl.org/dc/elements/1.1/" xmlns:inkscape="http://www.inkscape.org/namespaces/inkscape" xmlns:rdf="http://www.w3.org/1999/02/22-rdf-syntax-ns#" xmlns:sodipodi="http://sodipodi.sourceforge.net/DTD/sodipodi-0.dtd" xmlns:svg="http://www.w3.org/2000/svg" xml:space="preserve" width="1000" height="1000" version="1.1" style="clip-rule:evenodd;fill-rule:evenodd;image-rendering:optimizeQuality;shape-rendering:geometricPrecision;text-rendering:geometricPrecision" viewBox="0 0 1000 1000" id="svg10" sodipodi:docname="ൂ.svg" inkscape:version="1.0.2 (e86c870879, 2021-01-15)"><svg:metadata id="metadata14"><rdf:RDF><cc:Work rdf:about=""><dc:format>image/svg+xml</dc:format><dc:type rdf:resource="http://purl.org/dc/dcmitype/StillImage" /><dc:title /></cc:Work></rdf:RDF></svg:metadata><sodipodi:namedview pagecolor="#ffffff" bordercolor="#666666" borderopacity="1" objecttolerance="10" gridtolerance="10" guidetolerance="10" inkscape:pageopacity="0" inkscape:pageshadow="2" inkscape:window-width="1920" inkscape:window-height="1007" id="namedview12" showgrid="false" inkscape:zoom="0.84890884" inkscape:cx="145.62378" inkscape:cy="834.80684" inkscape:window-x="1920" inkscape:window-y="0" inkscape:window-maximized="1" inkscape:current-layer="svg10" showguides="true" inkscape:guide-bbox="true" inkscape:document-rotation="0" inkscape:pagecheckerboard="0"><sodipodi:guide position="0,1000" orientation="0,1" id="guide16" inkscape:label="" inkscape:locked="true" inkscape:color="rgb(0,0,255)" /><sodipodi:guide position="1763.3122,2036.1693" orientation="1000,0" id="guide18" /><sodipodi:guide position="0,200" orientation="0,1" id="guide20" inkscape:label="base" inkscape:locked="true" inkscape:color="rgb(0,0,255)" /><inkscape:grid type="xygrid" id="grid24" originx="-473.37552" originy="-489.69235" /><sodipodi:guide position="0,0" orientation="0,1" id="guide34" inkscape:label="bottom" inkscape:locked="true" inkscape:color="rgb(0,0,255)" /><sodipodi:guide position="225.05109,1693.3186" orientation="0,1" id="guide44" inkscape:label="" inkscape:locked="false" inkscape:color="rgb(0,0,255)" /><sodipodi:guide position="0,900" orientation="0,1" id="guide46" inkscape:label="" inkscape:locked="true" inkscape:color="rgb(0,0,255)" /><sodipodi:guide position="297.89857,548.58673" orientation="1,0" id="guide841" inkscape:label="width" />    </sodipodi:namedview>
 <svg:defs id="defs4"><inkscape:path-effect effect="fillet_chamfer" id="path-effect848" is_visible="true" lpeversion="1" satellites_param="F,0,0,1,0,0,0,1 @ F,0,0,1,0,0,0,1 @ F,0,0,1,0,0,0,1 @ F,0,0,1,0,0,0,1 @ F,0,0,1,0,0,0,1 @ F,0,0,1,0,0,0,1 @ F,0,0,1,0,0,0,1 @ F,0,0,1,0,0,0,1 @ F,0,0,1,0,0,0,1 @ F,0,0,1,0,0,0,1 @ F,0,0,1,0,0,0,1 @ F,0,0,1,0,0,0,1 @ F,0,0,1,0,0,0,1 @ F,0,0,1,0,0,0,1 @ F,0,0,1,0,0,0,1 @ F,0,0,1,0,18.768813,0,1 @ F,0,0,1,0,23.690856,0,1 @ F,0,0,1,0,0,0,1 @ F,0,0,1,0,0,0,1 @ F,0,0,1,0,0,0,1 @ F,0,0,1,0,0,0,1 @ F,0,0,1,0,0,0,1 @ F,0,0,1,0,0,0,1 @ F,0,0,1,0,0,0,1 @ F,0,0,1,0,0,0,1 @ F,0,0,1,0,0,0,1 @ F,0,0,1,0,0,0,1 @ F,0,0,1,0,0,0,1 @ F,0,0,1,0,0,0,1 @ F,0,0,1,0,0,0,1 @ F,0,0,1,0,0,0,1 @ F,0,0,1,0,0,0,1 | F,0,0,1,0,12.11372,0,1 @ F,0,0,1,0,0,0,1 @ F,0,0,1,0,0,0,1 @ F,0,0,1,0,0,0,1 @ F,0,0,1,0,0,0,1 @ F,0,0,1,0,0,0,1 @ F,0,0,1,0,0,0,1 @ F,0,0,1,0,0,0,1 @ F,0,0,1,0,0,0,1 @ F,0,0,1,0,0,0,1 @ F,0,0,1,0,18.475754,0,1" unit="px" method="auto" mode="F" radius="0" chamfer_steps="1" flexible="false" use_knot_distance="true" apply_no_radius="true" apply_with_radius="true" only_selected="true" hide_knots="false" /><inkscape:path-effect effect="spiro" id="path-effect845" is_visible="true" lpeversion="1" /><inkscape:path-effect effect="spiro" id="path-effect887" is_visible="true" lpeversion="1" />
  <svg:style type="text/css" id="style2">
   
    .fil0 {fill:#EF7F1A;fill-rule:nonzero}
   
  </svg:style>
 <inkscape:path-effect effect="spiro" id="path-effect1214" is_visible="true" lpeversion="1" /><inkscape:path-effect effect="spiro" id="path-effect1195" is_visible="true" lpeversion="1" /><inkscape:path-effect effect="spiro" id="path-effect992" is_visible="true" lpeversion="1" /><inkscape:path-effect effect="spiro" id="path-effect1011" is_visible="true" lpeversion="1" /><inkscape:path-effect effect="spiro" id="path-effect261" is_visible="true" lpeversion="1" /></svg:defs>
 
<svg:g id="path979-0-6-9"><svg:path style="color:#000000;fill:#1a5fb4;fill-rule:nonzero;stroke-linecap:round;stroke-linejoin:round;-inkscape-stroke:none;paint-order:fill stroke markers" d="M 74.005859,62.240234 C 53.974479,60.388751 33.322634,74.952733 29.308594,94.548828 L 2.6738281,224.58008 C -2.6365778,250.50489000000002 14.870524999999999,274.85462 38.070312,281.54102 C 63.055869,288.74208 86.12299200000001,304.24852 101.91406,324.65234 C 123.75674000000001,352.87552 133.61405000000002,392.02635 134.14062,431.92187 C 135.27859,518.1384800000001 96.75688400000001,604.43696 63.085937000000015,695.0019500000001 C 56.04812500000001,713.9316100000001 49.420544000000014,733.0105000000001 43.029297000000014,752.1679700000001 C 23.607762000000015,760.0199000000001 5.114445800000013,770.61003 -11.374999999999986,784.6523400000001 C -29.325617999999984,799.9389800000001 -44.52307299999998,818.8614300000002 -55.02343699999999,840.7402300000001 C -65.54846699999999,862.6704400000001 -71.11550499999998,887.1668200000001 -70.08203099999999,912.1543000000001 C -69.04262499999999,937.2852100000001 -61.39879099999999,961.3004600000002 -49.160155999999986,982.3437500000001 C -44.52268999999998,990.3174800000002 -39.09628399999998,997.6545000000001 -33.326171999999985,1004.6562000000001 C -34.84255299999999,1004.7222000000002 -36.39197999999998,1004.8803000000001 -37.978515999999985,1005.1738000000001 C -49.93011899999998,1007.3851000000002 -58.329551999999985,1016.0845000000002 -62.138671999999985,1022.6875000000001 C -65.94779199999999,1029.2905 -67.22040499999999,1034.9407 -68.08984399999999,1040.5469 L -87.40039099999998,1165.0684 C -91.13379799999998,1189.1414000000002 -84.21376399999998,1208.9913000000001 -62.986327999999986,1224.0117 C -1.3382200999999867,1267.6335 74.409952,1290.1252 150.00781,1286.7012 C 200.11277,1284.4318 250.18236000000002,1270.9024 294.16016,1244.8711 C 338.23301000000004,1218.7835 375.36108,1180.3739 397.98828000000003,1133.3906000000002 C 432.77477000000005,1061.1597000000002 429.49026000000003,975.8945100000002 396.86328000000003,904.5820300000001 C 372.56431000000003,851.4719900000001 332.56987000000004,805.9154000000001 282.36523,775.5449200000002 C 258.63496,761.1896800000002 232.82432,750.5359500000002 206.03710999999998,743.6523400000002 C 206.54019,730.2610100000002 207.57166999999998,716.8888000000002 209.4082,703.6210900000002 C 216.83384999999998,649.9756800000002 235.5683,596.2193600000002 253.17383,540.0195300000003 C 270.79753,483.76170000000025 287.49804,423.7552000000003 287.10742,360.1152300000002 C 286.6393,283.8478 260.25269,207.43386 209.20117,149.26172 C 175.16294,110.47586 131.18926,80.982165 82.503906,64.072266 C 79.717929,63.104611 76.867485,62.504732 74.005859,62.240234 M 83.462891,129.16992 C 114.10383999999999,143.17566 141.95457,163.59963 164.10352,188.83789 C 204.61117000000002,234.99552999999997 226.72356000000002,297.94597999999996 227.10742,360.48437 C 227.43106,413.21104 213.08173,467.29437 195.91797,522.08398 C 178.73606,576.93156 158.5047,633.7702400000001 149.97460999999998,695.39453 C 148.15346,708.5511300000001 147.09878999999998,721.79165 146.41797,735.05078 C 135.60779,734.6560000000001 124.77123999999999,734.6774 113.94140999999999,735.5703100000001 C 113.38869999999999,735.6159100000001 112.83418999999999,735.7106900000001 112.28124999999999,735.7597700000001 C 114.64721999999999,729.1499600000001 116.87966999999999,722.4924900000001 119.32616999999999,715.9121100000001 C 151.93937,628.1921600000001 195.50907,535.1057600000001 194.13672,431.1308600000001 C 193.4901,382.14007 181.92745,330.00622 149.36328,287.92969 C 127.35583,259.49361 97.202606,238.37906 63.464844,226.79687 L 83.462891,129.16992 M 206.78711,806.41016 C 222.33075000000002,811.6197500000001 237.33644,818.42941 251.31055,826.8828100000001 C 290.76199,850.74832 323.00678,887.3699300000001 342.30273,929.54492 C 345.22185,935.92521 347.79312,942.47558 350.0918,949.1269500000001 A 30.003,30.003 0.0 0,0 345.88867,943.8281200000001 L 268.05078,867.3066400000001 A 30.003,30.003 0.0 0,0 224.24218999999997,869.1757800000001 C 218.75057999999996,875.5819700000002 213.09405999999996,881.8457900000002 207.34960999999996,888.0273400000001 C 197.89448999999996,884.0028800000001 188.48942999999997,880.214 179.33593999999997,876.7363300000001 C 166.64272999999997,871.91381 152.47110999999995,866.59374 136.24608999999998,863.45117 C 119.89215999999999,860.28363 101.50515999999999,859.42217 82.72460899999999,864.75391 C 63.93290799999998,870.08881 46.55175399999999,881.27392 34.533202999999986,898.39648 C 22.33144199999999,915.78006 16.943510999999987,937.61127 21.845702999999986,959.6484399999999 C 24.060221999999985,969.6035199999999 28.245238999999987,978.6857699999999 33.853515999999985,986.6660199999999 C 21.129469,977.0572 10.317323,965.2683 2.7050781,952.17969 C -4.9659951,938.98993 -9.5357029,924.11278 -10.132813,909.67578 C -10.726215,895.3284100000001 -7.438694100000001,880.26349 -0.9296875,866.70117 C 5.6039914,853.08744 15.503191999999999,840.5720200000001 27.525391,830.33398 C 30.041812,828.19101 32.711062999999996,826.20159 35.416016,824.25195 A 30.003,30.003 0.0 0,0 58.818359,834.6855499999999 L 178.75781,829.97656 A 30.003,30.003 0.0 0,0 206.78711,806.4101599999999 L 206.78711,806.41016 M 110.86523000000001,920.96875 C 115.21010000000001,920.94585 119.92564000000002,921.40598 124.83789000000002,922.35742 C 134.79136000000003,924.2852800000001 145.79396000000003,928.17836 158.02734,932.82617 C 158.78312,933.1133100000001 159.49166,933.41341 160.24414000000002,933.70117 C 145.50483000000003,946.49369 131.63908,956.41589 118.67578000000002,960.2363300000001 C 109.26495000000001,963.00981 99.45041300000003,962.6418600000001 92.66796900000001,959.76367 C 89.27627000000001,958.32438 86.31218700000001,956.1827800000001 84.28710900000002,953.90625 C 82.30050300000002,951.67297 80.92600000000002,948.92244 80.41406200000002,946.62109 C 79.60334500000002,942.97662 80.73121100000002,937.01773 83.64453100000001,932.8671899999999 C 86.74104100000001,928.45566 92.59188200000001,924.32295 99.10937500000001,922.4726599999999 C 102.54473000000002,921.4973699999999 106.52037000000001,920.99164 110.86523000000001,920.9687499999999 L 110.86523000000001,920.96875 M 219.26562,961.19922 C 223.73178000000001,963.96398 228.05686,966.83137 232.09766000000002,969.91406 C 240.72690000000003,976.4972499999999 248.28485,984.1649199999999 254.43945000000002,992.36523 C 241.27153,1001.0661 227.00736000000003,1008.0681 212.07227000000003,1012.7266 C 186.42410000000004,1020.7265 158.10479000000004,1022.7039 129.67969000000005,1020.1191 C 128.93452000000005,1020.0511 128.20095000000006,1019.9316 127.45703000000005,1019.8574 C 130.22305000000006,1019.2638 132.95569000000003,1018.5778 135.63867000000005,1017.7871 C 163.93559000000005,1009.4477 184.76565000000005,992.1528 201.98828000000003,976.97266 C 207.83897000000002,971.81582 213.59315000000004,966.55059 219.26562000000004,961.19922 L 219.26562,961.19922 M 354.77148,964.43945 C 367.54276,1012.2031 364.6907,1064.2531999999999 343.93164,1107.3573999999999 C 326.94884,1142.6206 298.08196000000004,1172.8263 263.59766,1193.2383 C 229.01826000000003,1213.7065 188.38221000000001,1224.9026 147.29297000000003,1226.7637 C 85.48921600000003,1229.5629 22.24645900000003,1210.8193999999999 -28.32812499999997,1175.0332 C -24.021224999999973,1178.0807 -27.55315999999997,1170.6772 -28.10937499999997,1174.2637 L -16.18164099999997,1097.3516 C 13.669096000000028,1128.164 50.47521000000003,1152.1290999999999 91.30273400000003,1166.2383 C 115.87256000000002,1174.7291 142.23570000000004,1179.9085 169.37305000000003,1179.6602 C 196.58412000000004,1179.4112 224.26826000000003,1173.6387 249.56836000000004,1160.8711 C 274.97632000000004,1148.0491000000002 297.31938,1128.3876 312.23828000000003,1102.8613 C 327.24705000000006,1077.1813 333.97027,1046.5983 329.00000000000006,1016.1758 C 328.6099500000001,1013.7882999999999 327.9478500000001,1011.5276 327.42969000000005,1009.1992 C 335.41038000000003,1000.8227 342.84361000000007,991.8991100000001 349.48437000000007,982.35352 A 30.003,30.003 0.0 0,0 354.77148000000005,964.43945 L 354.77148,964.43945 M 21.544922,1049.8613 C 53.689822,1067.7021 89.403055,1076.7047 124.24609,1079.873 C 158.92725,1083.0266000000001 195.09339,1080.8742 229.9375,1070.0059 C 243.16176,1065.881 255.88775,1060.4460000000001 268.07617,1054.0273000000002 C 266.3628,1060.4862000000003 263.82268,1066.7939000000001 260.4375,1072.5859000000003 C 252.02822,1086.9742000000003 238.40313,1099.2999000000002 222.53710999999998,1107.3066000000003 C 206.56323999999998,1115.3678000000004 187.84295999999998,1119.4881000000003 168.82421999999997,1119.6621000000002 C 149.73173999999997,1119.8368000000003 130.02666999999997,1116.1390000000001 110.90038999999996,1109.5293000000001 C 76.90269399999997,1097.7803000000001 45.85119599999996,1076.7416 21.544921999999957,1049.8613000000003 L 21.544922,1049.8613" id="path6143" /></svg:g></svg:svg>

<svg:svg xmlns:cc="http://creativecommons.org/ns#" xmlns:dc="http://purl.org/dc/elements/1.1/" xmlns:inkscape="http://www.inkscape.org/namespaces/inkscape" xmlns:rdf="http://www.w3.org/1999/02/22-rdf-syntax-ns#" xmlns:sodipodi="http://sodipodi.sourceforge.net/DTD/sodipodi-0.dtd" xmlns:svg="http://www.w3.org/2000/svg" xml:space="preserve" width="1000" height="1000" version="1.1" style="clip-rule:evenodd;fill-rule:evenodd;image-rendering:optimizeQuality;shape-rendering:geometricPrecision;text-rendering:geometricPrecision" viewBox="0 0 1000 1000" id="svg10" sodipodi:docname="ൂ.svg" inkscape:version="1.0.2 (e86c870879, 2021-01-15)"><svg:metadata id="metadata14"><rdf:RDF><cc:Work rdf:about=""><dc:format>image/svg+xml</dc:format><dc:type rdf:resource="http://purl.org/dc/dcmitype/StillImage" /><dc:title /></cc:Work></rdf:RDF></svg:metadata><sodipodi:namedview pagecolor="#ffffff" bordercolor="#666666" borderopacity="1" objecttolerance="10" gridtolerance="10" guidetolerance="10" inkscape:pageopacity="0" inkscape:pageshadow="2" inkscape:window-width="1920" inkscape:window-height="1007" id="namedview12" showgrid="false" inkscape:zoom="0.84890884" inkscape:cx="145.62378" inkscape:cy="834.80684" inkscape:window-x="1920" inkscape:window-y="0" inkscape:window-maximized="1" inkscape:current-layer="svg10" showguides="true" inkscape:guide-bbox="true" inkscape:document-rotation="0" inkscape:pagecheckerboard="0"><sodipodi:guide position="0,1000" orientation="0,1" id="guide16" inkscape:label="" inkscape:locked="true" inkscape:color="rgb(0,0,255)" /><sodipodi:guide position="1763.3122,2036.1693" orientation="1000,0" id="guide18" /><sodipodi:guide position="0,200" orientation="0,1" id="guide20" inkscape:label="base" inkscape:locked="true" inkscape:color="rgb(0,0,255)" /><inkscape:grid type="xygrid" id="grid24" originx="-473.37552" originy="-489.69235" /><sodipodi:guide position="0,0" orientation="0,1" id="guide34" inkscape:label="bottom" inkscape:locked="true" inkscape:color="rgb(0,0,255)" /><sodipodi:guide position="225.05109,1693.3186" orientation="0,1" id="guide44" inkscape:label="" inkscape:locked="false" inkscape:color="rgb(0,0,255)" /><sodipodi:guide position="0,900" orientation="0,1" id="guide46" inkscape:label="" inkscape:locked="true" inkscape:color="rgb(0,0,255)" /><sodipodi:guide position="297.89857,548.58673" orientation="1,0" id="guide841" inkscape:label="width" />    </sodipodi:namedview>
 <svg:defs id="defs4"><inkscape:path-effect effect="fillet_chamfer" id="path-effect848" is_visible="true" lpeversion="1" satellites_param="F,0,0,1,0,0,0,1 @ F,0,0,1,0,0,0,1 @ F,0,0,1,0,0,0,1 @ F,0,0,1,0,0,0,1 @ F,0,0,1,0,0,0,1 @ F,0,0,1,0,0,0,1 @ F,0,0,1,0,0,0,1 @ F,0,0,1,0,0,0,1 @ F,0,0,1,0,0,0,1 @ F,0,0,1,0,0,0,1 @ F,0,0,1,0,0,0,1 @ F,0,0,1,0,0,0,1 @ F,0,0,1,0,0,0,1 @ F,0,0,1,0,0,0,1 @ F,0,0,1,0,0,0,1 @ F,0,0,1,0,18.768813,0,1 @ F,0,0,1,0,23.690856,0,1 @ F,0,0,1,0,0,0,1 @ F,0,0,1,0,0,0,1 @ F,0,0,1,0,0,0,1 @ F,0,0,1,0,0,0,1 @ F,0,0,1,0,0,0,1 @ F,0,0,1,0,0,0,1 @ F,0,0,1,0,0,0,1 @ F,0,0,1,0,0,0,1 @ F,0,0,1,0,0,0,1 @ F,0,0,1,0,0,0,1 @ F,0,0,1,0,0,0,1 @ F,0,0,1,0,0,0,1 @ F,0,0,1,0,0,0,1 @ F,0,0,1,0,0,0,1 @ F,0,0,1,0,0,0,1 | F,0,0,1,0,12.11372,0,1 @ F,0,0,1,0,0,0,1 @ F,0,0,1,0,0,0,1 @ F,0,0,1,0,0,0,1 @ F,0,0,1,0,0,0,1 @ F,0,0,1,0,0,0,1 @ F,0,0,1,0,0,0,1 @ F,0,0,1,0,0,0,1 @ F,0,0,1,0,0,0,1 @ F,0,0,1,0,0,0,1 @ F,0,0,1,0,18.475754,0,1" unit="px" method="auto" mode="F" radius="0" chamfer_steps="1" flexible="false" use_knot_distance="true" apply_no_radius="true" apply_with_radius="true" only_selected="true" hide_knots="false" /><inkscape:path-effect effect="spiro" id="path-effect845" is_visible="true" lpeversion="1" /><inkscape:path-effect effect="spiro" id="path-effect887" is_visible="true" lpeversion="1" />
  <svg:style type="text/css" id="style2">
   
    .fil0 {fill:#EF7F1A;fill-rule:nonzero}
   
  </svg:style>
 <inkscape:path-effect effect="spiro" id="path-effect1214" is_visible="true" lpeversion="1" /><inkscape:path-effect effect="spiro" id="path-effect1195" is_visible="true" lpeversion="1" /><inkscape:path-effect effect="spiro" id="path-effect992" is_visible="true" lpeversion="1" /><inkscape:path-effect effect="spiro" id="path-effect1011" is_visible="true" lpeversion="1" /><inkscape:path-effect effect="spiro" id="path-effect261" is_visible="true" lpeversion="1" /></svg:defs>
 
<svg:g id="path979-0-6-9"><svg:path style="color:#000000;fill:#1a5fb4;fill-rule:nonzero;stroke-linecap:round;stroke-linejoin:round;-inkscape-stroke:none" d="M 74.005859,62.240234 C 53.974479,60.388751 33.322634,74.952733 29.308594,94.548828 L 2.6738281,224.58008 c -5.3104059,25.92481 12.1966969,50.27454 35.3964839,56.96094 24.985557,7.20106 48.05268,22.7075 63.843748,43.11132 21.84268,28.22318 31.69999,67.37401 32.22656,107.26953 1.13797,86.21661 -37.383736,172.51509 -71.054683,263.08008 -7.037812,18.92966 -13.665393,38.00855 -20.05664,57.16602 -19.421535,7.85193 -37.9148512,18.44206 -54.404297,32.48437 -17.950618,15.28664 -33.148073,34.20909 -43.648437,56.08789 -10.52503,21.93021 -16.092068,46.42659 -15.058594,71.41407 1.039406,25.13091 8.68324,49.14616 20.921875,70.18945 4.637466,7.97373 10.063872,15.31075 15.833984,22.31245 -1.516381,0.066 -3.065808,0.2241 -4.652344,0.5176 -11.951603,2.2113 -20.351036,10.9107 -24.160156,17.5137 -3.80912,6.603 -5.081733,12.2532 -5.951172,17.8594 l -19.310547,124.5215 c -3.733407,24.073 3.186627,43.9229 24.414063,58.9433 61.6481079,43.6218 137.39628,66.1135 212.994138,62.6895 50.10496,-2.2694 100.17455,-15.7988 144.15235,-41.8301 44.07285,-26.0876 81.20092,-64.4972 103.82812,-111.4805 34.78649,-72.2309 31.50198,-157.49609 -1.125,-228.80857 -24.29897,-53.11004 -64.29341,-98.66663 -114.49805,-129.03711 -23.73027,-14.35524 -49.54091,-25.00897 -76.32812,-31.89258 0.50308,-13.39133 1.53456,-26.76354 3.37109,-40.03125 7.42565,-53.64541 26.1601,-107.40173 43.76563,-163.60156 17.6237,-56.25783 34.32421,-116.26433 33.93359,-179.9043 C 286.6393,283.8478 260.25269,207.43386 209.20117,149.26172 175.16294,110.47586 131.18926,80.982165 82.503906,64.072266 79.717929,63.104611 76.867485,62.504732 74.005859,62.240234 Z m 9.457032,66.929686 c 30.640949,14.00574 58.491679,34.42971 80.640629,59.66797 40.50765,46.15764 62.62004,109.10809 63.0039,171.64648 0.32364,52.72667 -14.02569,106.81 -31.18945,161.59961 -17.18191,54.84758 -37.41327,111.68626 -45.94336,173.31055 -1.82115,13.1566 -2.87582,26.39712 -3.55664,39.65625 -10.81018,-0.39478 -21.64673,-0.37338 -32.47656,0.51953 -0.55271,0.0456 -1.10722,0.14038 -1.66016,0.18946 2.36597,-6.60981 4.59842,-13.26728 7.04492,-19.84766 32.6132,-87.71995 76.1829,-180.80635 74.81055,-284.78125 C 193.4901,382.14007 181.92745,330.00622 149.36328,287.92969 127.35583,259.49361 97.202606,238.37906 63.464844,226.79687 Z M 206.78711,806.41016 c 15.54364,5.20959 30.54933,12.01925 44.52344,20.47265 39.45144,23.86551 71.69623,60.48712 90.99218,102.66211 2.91912,6.38029 5.49039,12.93066 7.78907,19.58203 a 30.003,30.003 0 0 0 -4.20313,-5.29883 l -77.83789,-76.52148 a 30.003,30.003 0 0 0 -43.80859,1.86914 c -5.49161,6.40619 -11.14813,12.67001 -16.89258,18.85156 -9.45512,-4.02446 -18.86018,-7.81334 -28.01367,-11.29101 -12.69321,-4.82252 -26.86483,-10.14259 -43.08985,-13.28516 -16.35393,-3.16754 -34.74093,-4.029 -53.521481,1.30274 -18.791701,5.3349 -36.172855,16.52001 -48.191406,33.64257 -12.201761,17.38358 -17.589692,39.21479 -12.6875,61.25196 2.214519,9.95508 6.399536,19.03733 12.007813,27.01758 C 21.129469,977.0572 10.317323,965.2683 2.7050781,952.17969 -4.9659951,938.98993 -9.5357029,924.11278 -10.132813,909.67578 c -0.593402,-14.34737 2.6941189,-29.41229 9.2031255,-42.97461 6.5336789,-13.61373 16.4328795,-26.12915 28.4550785,-36.36719 2.516421,-2.14297 5.185672,-4.13239 7.890625,-6.08203 a 30.003,30.003 0 0 0 23.402343,10.4336 l 119.939451,-4.70899 a 30.003,30.003 0 0 0 28.0293,-23.5664 z m -95.92188,114.55859 c 4.34487,-0.0229 9.06041,0.43723 13.97266,1.38867 9.95347,1.92786 20.95607,5.82094 33.18945,10.46875 0.75578,0.28714 1.46432,0.58724 2.2168,0.875 -14.73931,12.79252 -28.60506,22.71472 -41.56836,26.53516 -9.41083,2.77348 -19.225367,2.40553 -26.007811,-0.47266 -3.391699,-1.43929 -6.355782,-3.58089 -8.38086,-5.85742 -1.986606,-2.23328 -3.361109,-4.98381 -3.873047,-7.28516 -0.810717,-3.64447 0.317149,-9.60336 3.230469,-13.7539 3.09651,-4.41153 8.947351,-8.54424 15.464844,-10.39453 3.435355,-0.97529 7.410995,-1.48102 11.755855,-1.50391 z m 108.40039,40.23047 c 4.46616,2.76476 8.79124,5.63215 12.83204,8.71484 8.62924,6.58319 16.18719,14.25086 22.34179,22.45117 -13.16792,8.70087 -27.43209,15.70287 -42.36718,20.36137 -25.64817,7.9999 -53.96748,9.9773 -82.39258,7.3925 -0.74517,-0.068 -1.47874,-0.1875 -2.22266,-0.2617 2.76602,-0.5936 5.49866,-1.2796 8.18164,-2.0703 28.29692,-8.3394 49.12698,-25.6343 66.34961,-40.81444 5.85069,-5.15684 11.60487,-10.42207 17.27734,-15.77344 z m 135.50586,3.24023 c 12.77128,47.76365 9.91922,99.81375 -10.83984,142.91795 -16.9828,35.2632 -45.84968,65.4689 -80.33398,85.8809 -34.5794,20.4682 -75.21545,31.6643 -116.30469,33.5254 -61.803754,2.7992 -125.046511,-15.9443 -175.621095,-51.7305 4.3069,3.0475 0.774965,-4.356 0.21875,-0.7695 l 11.927734,-76.9121 c 29.850737,30.8124 66.656851,54.7775 107.484375,68.8867 24.569826,8.4908 50.932966,13.6702 78.070316,13.4219 27.21107,-0.249 54.89521,-6.0215 80.19531,-18.7891 25.40796,-12.822 47.75102,-32.4835 62.66992,-58.0098 15.00877,-25.68 21.73199,-56.263 16.76172,-86.6855 -0.39005,-2.3875 -1.05215,-4.6482 -1.57031,-6.9766 7.98069,-8.3765 15.41392,-17.30009 22.05468,-26.84568 a 30.003,30.003 0 0 0 5.28711,-17.91407 z M 21.544922,1049.8613 c 32.1449,17.8408 67.858133,26.8434 102.701168,30.0117 34.68116,3.1536 70.8473,1.0012 105.69141,-9.8671 13.22426,-4.1249 25.95025,-9.5599 38.13867,-15.9786 -1.71337,6.4589 -4.25349,12.7666 -7.63867,18.5586 -8.40928,14.3883 -22.03437,26.714 -37.90039,34.7207 -15.97387,8.0612 -34.69415,12.1815 -53.71289,12.3555 -19.09248,0.1747 -38.79755,-3.5231 -57.92383,-10.1328 -33.997696,-11.749 -65.049194,-32.7877 -89.355468,-59.668 z" id="path6131" /></svg:g></svg:svg>
